src/Pure/16/symbolic/apps/org.gnome.Settings-region-symbolic.svg

<?xml version="1.0" encoding="UTF-8" standalone="no"?>
<svg
   width="16px"
   height="16px"
   version="1.1"
   viewBox="0 0 16 16"
   id="svg1"
   sodipodi:docname="org.gnome.Settings-region-symbolic.svg"
   inkscape:version="1.4.2 (ebf0e940d0, 2025-05-08)"
   xmlns:inkscape="http://www.inkscape.org/namespaces/inkscape"
   xmlns:sodipodi="http://sodipodi.sourceforge.net/DTD/sodipodi-0.dtd"
   xmlns="http://www.w3.org/2000/svg"
   xmlns:svg="http://www.w3.org/2000/svg">
  <defs
     id="defs1">
     <style
        id="current-color-scheme"
        type="text/css">
        .ColorScheme-Text { color:#363636; }
     </style>
  </defs>
  <sodipodi:namedview
     id="namedview1"
     pagecolor="#ffffff"
     bordercolor="#000000"
     borderopacity="0.25"
     inkscape:showpageshadow="2"
     inkscape:pageopacity="0.0"
     inkscape:pagecheckerboard="0"
     inkscape:deskcolor="#d1d1d1"
     inkscape:zoom="49.75"
     inkscape:cx="7.9899497"
     inkscape:cy="8"
     inkscape:window-width="1920"
     inkscape:window-height="1011"
     inkscape:window-x="0"
     inkscape:window-y="0"
     inkscape:window-maximized="1"
     inkscape:current-layer="svg1" />
  <path
     id="path1"
     style="fill:currentColor"
     class="ColorScheme-Text"
     d="M 3 0 C 2.44922 0 2 0.44922 2 1 L 2 16 L 3 16 L 3 8 L 6.3828125 8 L 7.1054688 9.4492188 C 7.2734388 9.7851588 7.6211 10 8 10 L 13 10 C 13.55078 10 14 9.55078 14 9 L 14 3 C 14 2.44922 13.55078 2 13 2 L 9.6171875 2 L 8.8945312 0.55078125 C 8.7265612 0.21484125 8.3789 1.4802974e-16 8 0 L 3 0 z M 3 1 L 8 1 L 9 3 L 13 3 L 13 9 L 8 9 L 7 7 L 3 7 L 3 1 z " />
</svg>

<svg width="16px" height="16px" version="1.1" viewBox="0 0 16 16" xmlns="http://www.w3.org/2000/svg">
 <path d="m3 0c-0.55078 0-1 0.44922-1 1v15h1v-8h3.3828l0.72266 1.4492c0.16797 0.33594 0.51563 0.55078 0.89453 0.55078h5c0.55078 0 1-0.44922 1-1v-6c0-0.55078-0.44922-1-1-1h-3.3828l-0.72266-1.4492c-0.16797-0.33594-0.51563-0.55078-0.89453-0.55078zm0 1h5l1 2h4v6h-5l-1-2h-4z" fill="#363636"/>
</svg>
